X:1
T:Milton (Zundel), 12.10.12.10
T:Milton (Zundel), 12.10.12.10
T:John Zundel, 1855
T:Public Domain Courtesy of the Cyber Hymnal™
C:John Zundel, 1855
Z:Public Domain
Z:Courtesy of the Cyber Hymnal™
%%score ( 1 2 ) ( 3 4 )
L:1/8
Q:1/4=113
M:4/4
K:C
V:1 treble 
V:2 treble 
V:3 bass 
V:4 bass 
V:1
 G4 | [Gc]2 [Gc]2 [Gc]2 [Gc]2 | [Gc]6 G2 | E2 F2 G2 A2 | D6 [DG]2 | [GB]4 [F^A]4 | [GB]6 [^FA]2 | %7
 [GB]2 [^FA]2 [GB]2 [Gc]2 | [Gd]6 [FG]2 | [Ee]3 [Fd] [Ec]2 [FA]2 | [Ec]6 [EG]2 | %11
 [Ge]3 [Fd] [Ec]2 [FA]2 | [Ec]6 [Gc]2 | [FA]3 [FA] [Ad]2 [Ad]2 | [GB]4 ([Gc]2 [Ad]2) | %15
 [Ge]4 [Fd]4 | [Ec]6 |] %17
V:2
 G4 | x8 | x6 G2 | E2 F2 G2 A2 | D6 x2 | x8 | x8 | x8 | x8 | x8 | x8 | x8 | x8 | x8 | x8 | x8 | %16
 x6 |] %17
V:3
 G,4 | [CE]2 [CE]2 [CE]2 [CE]2 | [CE]6 G,2 | E,2 F,2 G,2 A,2 | [G,B,]6 [G,B,]2 | [G,D]4 [D,D]4 | %6
 [G,D]6 [D,D]2 | [G,D]2 [D,D]2 [G,D]2 [G,E]2 | [G,F]6 [G,B,]2 | [C,C]3 [C,C] [C,C]2 [C,C]2 | %10
 [C,C]6 [C,C]2 | [C,C]3 [C,C] [C,C]2 [C,C]2 | [C,C]6 [E,C]2 | [F,C]3 [F,C] [D,F]2 [D,F]2 | D4 C4 | %15
 [G,C]4 [G,B,]4 | [C,C]6 |] %17
V:4
 G,4 | x8 | x6 G,2 | E,2 F,2 G,2 A,2 | x8 | x8 | x8 | x8 | x8 | x8 | x8 | x8 | x8 | x8 | %14
 G,2 F,2 (E,2 F,2) | x8 | x6 |] %17

